cssgg/arrow-long-down-c.svg

<svg
  width="24"
  height="24"
  viewBox="0 0 24 24"
  fill="none"
  xmlns="http://www.w3.org/2000/svg"
>
  <path
    fill-rule="evenodd"
    clip-rule="evenodd"
    d="M10.9991 6.84976C9.83339 6.43819 8.99813 5.32671 8.99813 4.02014C8.99813 2.36329 10.3413 1.02014 11.9981 1.02014C13.655 1.02014 14.9981 2.36329 14.9981 4.02014C14.9981 5.32601 14.1638 6.43701 12.9991 6.84911L13.0121 19.1375L14.8244 17.315L16.2426 18.7253L12.0119 22.9799L7.75739 18.7491L9.16763 17.3309L11.0122 19.1652L10.9991 6.84976ZM11.9981 5.02014C11.4458 5.02014 10.9981 4.57243 10.9981 4.02014C10.9981 3.46786 11.4458 3.02014 11.9981 3.02014C12.5504 3.02014 12.9981 3.46786 12.9981 4.02014C12.9981 4.57243 12.5504 5.02014 11.9981 5.02014Z"
    fill="currentColor"
  />
</svg>

<svg viewBox="0 0 24 24" xmlns="http://www.w3.org/2000/svg"><path fill-rule="evenodd" d="M10.99 6.84c-1.17-.42-2.01-1.53-2.01-2.83 0-1.66 1.34-3 2.99-3 1.65 0 3 1.34 3 3 0 1.3-.84 2.41-2 2.82l.01 12.28 1.81-1.83 1.41 1.41 -4.24 4.25L7.7 18.7l1.41-1.42 1.84 1.83 -.02-12.32Zm.99-1.83c-.56 0-1-.45-1-1 0-.56.44-1 1-1 .55 0 1 .44 1 1 0 .55-.45 1-1 1Z"/></svg>
